X: 1
T: Juletr\aet med sin pynt [D]
O: Danmark
M: C
L: 1/4
K: D
[| A A G F | E F D z | B, C D  A, | E  A, F z |
|  F G F E | D F E z | A  B A ^G  | F ^G  A z |
|  d d B d | A G F z | B  A G  F  | E  F  D z |]
